public/tools-icons/tanstack-start.svg

<svg xmlns="http://www.w3.org/2000/svg" width="24" height="24" fill="none"><path fill="#26265a" d="M11.0803 0.0227068C11.3958 -0.0189158 11.7292 0.00941769 12.0472 0.00941769C13.2255 0.00941769 14.3823 0.193178 15.5096 0.541453C16.9483 0.98595 18.2884 1.69661 19.4711 2.63155C20.9208 3.77748 22.1219 5.28054 22.8927 6.96741C24.3347 10.1234 24.3241 13.9483 22.8468 17.091C21.8915 19.123 20.359 20.8237 18.5041 22.064C16.9907 23.0759 15.2206 23.6953 13.4197 23.9146C11.1274 24.1938 8.64922 23.7859 6.58851 22.7245C2.71995 20.7319 0.0899326 16.7217 0.0379031 12.3269C0.0278902 11.4796 0.0410224 10.6273 0.207997 9.78822C0.479967 8.42173 0.954159 7.1008 1.66632 5.90177C2.43669 4.60467 3.43177 3.46005 4.62336 2.53721C6.02074 1.45499 7.64482 0.67657 9.36466 0.28056C9.78 0.184936 10.197 0.131942 10.6162 0.0806898L10.7486 0.0645151C10.859 0.0510048 10.9696 0.0373172 11.0803 0.0227068ZM7.07824 20.0024C6.54551 20.0598 5.98362 20.1572 5.52639 20.4577C5.62932 20.4826 5.74729 20.4579 5.85466 20.4577C6.11257 20.4573 6.37295 20.4476 6.63059 20.4589C7.27556 20.4873 7.94758 20.591 8.57041 20.7626C9.36785 20.9822 10.0702 21.4145 10.8385 21.706C11.649 22.0135 12.4558 22.1091 13.3155 22.1091C13.7487 22.1091 14.1787 22.1078 14.5988 21.989C14.3795 21.8717 14.0657 21.8937 13.8228 21.8449C13.2959 21.7389 12.7778 21.6094 12.271 21.4278C11.8979 21.2941 11.5386 21.1291 11.181 20.9606L10.9512 20.852C10.6192 20.6953 10.2864 20.5407 9.9432 20.4105C9.04068 20.068 8.04057 19.8987 7.07824 20.0024ZM7.88401 17.7255C6.8283 17.7255 5.76057 17.9123 4.81015 18.3935C4.57988 18.5101 4.36101 18.649 4.15359 18.8029C4.09039 18.8498 3.97833 18.9101 3.95496 18.9917C3.93126 19.0745 4.01599 19.1438 4.06406 19.1967C4.30162 19.0695 4.52732 18.9349 4.7803 18.8383C6.41646 18.214 8.39994 18.3449 10.0327 18.9173C10.847 19.2028 11.5972 19.6298 12.3904 19.9646C13.2774 20.3391 14.1833 20.5819 15.1359 20.7064C16.2596 20.8532 17.5408 20.7342 18.5679 20.2249C18.9288 20.0459 19.43 19.7732 19.5826 19.3769C19.3941 19.3934 19.2245 19.4745 19.0454 19.5305C18.7606 19.6194 18.4725 19.6948 18.18 19.7537C17.1885 19.9532 16.1343 19.9944 15.1359 19.8133C14.1951 19.6427 13.3208 19.2999 12.4507 18.9393L12.3396 18.8932C12.2656 18.8624 12.1916 18.8315 12.1175 18.8007L12.0064 18.7544C11.5619 18.5695 11.1157 18.3868 10.6594 18.2268C9.77309 17.916 8.82318 17.7255 7.88401 17.7255ZM9.73429 1.43493C8.46879 1.71575 7.33513 2.26259 6.24263 2.95195C5.60837 3.35215 5.00165 3.76213 4.45203 4.2772C3.63468 5.04322 3.01 5.97425 2.46518 6.94671C1.90383 7.94866 1.54392 9.11637 1.36996 10.2494C1.19932 11.361 1.1712 12.5297 1.36668 13.6422C1.61103 15.033 2.07614 16.3382 2.81065 17.5454C3.05748 17.4296 3.23272 17.1655 3.43736 16.9877C3.85057 16.6285 4.2844 16.2957 4.75046 16.0084C4.92299 15.9021 5.10022 15.8196 5.28764 15.7439C5.35834 15.7153 5.47392 15.6892 5.5072 15.6112C5.56008 15.4874 5.46228 15.2718 5.44548 15.1434C5.39752 14.7763 5.36858 14.4029 5.37762 14.0325C5.40388 12.9536 5.60458 11.8597 5.98669 10.8499C6.27465 10.089 6.71454 9.39818 7.23566 8.77821C7.41249 8.56783 7.60047 8.37201 7.79448 8.17775C7.90914 8.06293 8.05143 7.96469 8.12276 7.81742C7.74858 7.81766 7.37435 7.92605 7.01855 8.03609C6.25206 8.27316 5.50538 8.62493 4.86983 9.12124C4.57994 9.34765 4.36763 9.64441 4.09346 9.88269C4.00936 9.9558 3.85871 10.0538 3.7425 9.99861C3.56694 9.91533 3.59403 9.56824 3.57392 9.40872C3.49656 8.79514 3.72794 8.01904 4.02199 7.48715C4.49402 6.63335 5.36682 5.90429 6.39184 5.92975C6.83451 5.94074 7.22205 6.09525 7.64526 6.1961C7.53795 6.04294 7.39407 5.93131 7.2573 5.80578C6.92219 5.49818 6.55565 5.21724 6.1531 5.00473C5.99114 4.91925 5.81676 4.8673 5.64576 4.80449C5.55978 4.77294 5.45151 4.72949 5.41916 4.6335C5.35926 4.45573 5.67793 4.29107 5.79498 4.2161C6.24746 3.92631 6.80228 3.68791 7.34683 3.67449C8.19784 3.6535 9.02934 4.12786 9.37988 4.93507C9.50311 5.21882 9.53956 5.51889 9.56374 5.82172L9.56814 5.87853L9.57445 5.96383C9.57514 5.97331 9.57584 5.98279 9.57653 5.99227L9.58073 6.04915L9.58508 6.10603C9.85236 5.88715 10.0403 5.56504 10.3013 5.33061C10.9117 4.78231 11.747 4.5389 12.5396 4.78573C13.2558 5.00875 13.8784 5.5053 14.2448 6.16607C14.3406 6.33896 14.608 6.76149 14.4148 6.93368C14.2636 7.06849 14.0718 6.96344 13.9124 6.90753C13.7916 6.86521 13.6668 6.83836 13.5416 6.8135L13.4733 6.80006C13.4505 6.79559 13.4278 6.79111 13.405 6.78653C12.9713 6.69919 12.4669 6.70826 12.0322 6.78503C11.7512 6.83466 11.4766 6.93512 11.1966 6.97674V7.03679C11.9622 7.04315 12.7028 7.4819 13.0805 8.14769C13.237 8.42353 13.3152 8.73923 13.3752 9.04843C13.4493 9.43058 13.3972 9.84693 13.2932 10.2194C13.2584 10.3443 13.1951 10.556 13.0465 10.5847C12.9414 10.605 12.8521 10.5 12.7922 10.4291C12.6349 10.2434 12.4853 10.0668 12.3008 9.90641C11.834 9.50069 11.3404 9.12643 10.8385 8.76557C10.572 8.57395 10.2801 8.32484 9.97304 8.20774C10.0594 8.41665 10.144 8.61088 10.1733 8.83826C10.2597 9.50708 9.98095 10.1366 9.56258 10.6397C9.43491 10.7933 9.29834 10.9479 9.13743 11.0672C9.0707 11.1167 8.98696 11.1813 8.89868 11.1673C8.62191 11.1234 8.58897 10.7043 8.54653 10.4896C8.40281 9.76238 8.46052 9.04011 8.65994 8.32784C8.48252 8.41821 8.35428 8.61598 8.24288 8.77821C7.99777 9.13517 7.78511 9.51273 7.63261 9.91914C7.02527 11.538 7.03112 13.4342 7.81791 14.9927C7.90577 15.1668 8.03911 15.1434 8.21229 15.1434C8.23838 15.1434 8.26451 15.1432 8.29065 15.143L8.36914 15.1422C8.52619 15.1405 8.68359 15.1398 8.839 15.1607C8.91963 15.1715 9.0316 15.1619 9.09544 15.2216C9.17187 15.2931 9.13113 15.4157 9.11352 15.5037C9.06434 15.7497 9.0479 15.9733 9.0479 16.2243C9.37456 16.1734 9.46511 15.6473 9.5809 15.3836C9.71212 15.0848 9.84564 14.7858 9.96704 14.4829C10.0267 14.334 10.1066 14.1675 10.0856 14.0025C10.0621 13.817 9.92866 13.6203 9.83567 13.462C9.65966 13.1626 9.45959 12.8545 9.33001 12.5313C9.22642 12.2729 9.32288 11.9501 9.61495 11.8578C9.77605 11.8068 9.94791 11.9067 10.0528 12.0237C10.2726 12.2689 10.4145 12.6338 10.5741 12.9216L11.8191 15.1734C11.9249 15.3641 12.0309 15.5546 12.139 15.7439C12.1812 15.8178 12.2242 15.9318 12.3106 15.9633C12.3876 15.9913 12.4928 15.9515 12.5694 15.9361C12.7682 15.8961 12.9667 15.8529 13.1663 15.8167C13.4054 15.7733 13.7699 15.7814 13.9422 15.5938C13.6901 15.5136 13.3988 15.5183 13.1364 15.5364C12.9789 15.5473 12.8042 15.6039 12.6594 15.5114C12.4439 15.3739 12.3006 15.0561 12.1688 14.8432C11.8437 14.3181 11.5374 13.7851 11.2261 13.2519L11.1763 13.1669L11.0762 12.9973C11.0262 12.9124 10.9766 12.8273 10.9285 12.7414C10.8913 12.675 10.8362 12.5875 10.8895 12.5143C10.9454 12.4374 11.0674 12.4329 11.1775 12.4327L11.1993 12.4327C11.2426 12.4328 11.2831 12.4328 11.316 12.4285C11.7603 12.3697 12.2108 12.3211 12.6589 12.3211C12.6241 12.1992 12.5243 12.0614 12.5562 11.9309C12.6276 11.6389 13.0458 11.5475 13.2403 11.7571C13.3709 11.8977 13.4468 12.0913 13.5318 12.2611C13.6439 12.4851 13.7716 12.7017 13.8916 12.9216C14.1018 13.3065 14.3313 13.6809 14.5475 14.0625C14.5653 14.094 14.5836 14.1253 14.6022 14.1566L14.6301 14.2035C14.7234 14.36 14.8171 14.5175 14.8673 14.693C14.1167 14.6585 13.5533 13.7833 13.226 13.1918C13.1999 13.2865 13.2423 13.371 13.2762 13.462C13.3467 13.651 13.431 13.831 13.5371 14.0025C13.6886 14.2473 13.8622 14.4994 14.0914 14.6772C14.4982 14.9926 15.0345 14.9943 15.5239 14.9606C15.8377 14.9389 16.2299 14.7954 16.5386 14.8928C16.8468 14.99 16.9708 15.3314 16.7878 15.5937C16.6507 15.7902 16.4677 15.8644 16.2401 15.894C16.4011 16.2408 16.6119 16.5626 16.7647 16.9149C16.8283 17.0616 16.8947 17.2865 17.0472 17.364C17.1487 17.4155 17.2942 17.3675 17.404 17.3652C17.2938 17.0724 17.0875 16.8238 16.9862 16.5245C17.2951 16.5387 17.5939 16.7007 17.8815 16.804C18.4473 17.0073 19.006 17.2295 19.5639 17.4538L19.8213 17.5574C20.0508 17.6497 20.2816 17.7411 20.5077 17.8415C20.5905 17.8782 20.705 17.964 20.7964 17.9112C20.871 17.868 20.9193 17.7652 20.9653 17.6955C21.094 17.5005 21.2106 17.2981 21.3261 17.095C21.7885 16.2817 22.1277 15.3905 22.3542 14.4829C23.1016 11.4893 22.4604 8.18627 20.6646 5.68568C19.9746 4.72493 19.1068 3.89433 18.1501 3.20647C15.7559 1.48513 12.6149 0.795771 9.73429 1.43493ZM14.6286 16.3633C13.9939 16.5295 13.3398 16.6801 12.6888 16.7647C12.7744 17.0576 12.9836 17.3424 13.1368 17.6054C13.196 17.7071 13.2594 17.8433 13.3764 17.8874C13.5085 17.9373 13.6683 17.8564 13.793 17.8156C13.7352 17.6569 13.6381 17.514 13.5585 17.3652C13.5258 17.3038 13.4751 17.2312 13.5021 17.1583C13.5531 17.0206 13.7651 17.0287 13.8825 17.0048C14.1919 16.9418 14.4981 16.8631 14.8077 16.8008C14.9217 16.7778 15.0805 16.7156 15.1952 16.754C15.281 16.7828 15.3327 16.8538 15.3817 16.9279L15.4036 16.9613C15.4329 17.0058 15.4629 17.0492 15.5003 17.0832C15.6255 17.1967 15.8127 17.2141 15.9715 17.2451C15.8746 17.0259 15.7134 16.8342 15.6101 16.6146C15.55 16.4869 15.5007 16.299 15.3692 16.2252C15.188 16.1236 14.8138 16.3148 14.6286 16.3633ZM10.6296 14.9032C10.5997 15.2839 10.4835 15.5936 10.3013 15.924C10.5101 15.9506 10.723 15.96 10.928 16.0111C11.0817 16.0493 11.2233 16.1223 11.3757 16.1642C11.2942 15.9403 11.143 15.7405 11.0259 15.5337C10.9077 15.325 10.8019 15.0713 10.6296 14.9032Z"/></svg>

<svg xmlns="http://www.w3.org/2000/svg" width="24" height="24" fill="none" viewBox="0 0 24 24"><path fill="#26265a" d="M11.08.023c.316-.042.65-.014.967-.014 1.178 0 2.335.184 3.463.532a12.2 12.2 0 0 1 3.961 2.09 11.9 11.9 0 0 1 3.422 4.336c1.442 3.156 1.431 6.981-.046 10.124-.956 2.032-2.488 3.733-4.343 4.973-1.513 1.012-3.283 1.631-5.084 1.85-2.293.28-4.77-.128-6.831-1.19-3.87-1.992-6.5-6.002-6.551-10.397-.01-.847.003-1.7.17-2.539.272-1.366.746-2.687 1.458-3.886a12 12 0 0 1 2.957-3.365A12.3 12.3 0 0 1 9.365.281a12 12 0 0 1 1.251-.2l.133-.016zm-4.002 19.98c-.532.057-1.094.154-1.552.455.103.025.221 0 .329 0 .258 0 .518-.01.776 0a9 9 0 0 1 1.94.305c.797.22 1.5.651 2.268.943.81.308 1.617.403 2.476.403.434 0 .864-.001 1.284-.12-.22-.117-.533-.095-.776-.144a11 11 0 0 1-1.552-.417 12 12 0 0 1-1.09-.467l-.23-.109a14 14 0 0 0-1.008-.442c-.902-.342-1.902-.511-2.865-.408m.806-2.277c-1.056 0-2.123.186-3.074.668a4.6 4.6 0 0 0-.656.409c-.064.047-.176.107-.199.189s.061.152.11.205c.237-.127.462-.262.715-.359 1.636-.624 3.62-.493 5.253.08.814.285 1.564.712 2.357 1.047a10.5 10.5 0 0 0 2.746.741c1.124.147 2.405.028 3.432-.481.36-.18.862-.452 1.015-.848-.189.016-.358.098-.538.154a9 9 0 0 1-.865.223c-.991.2-2.046.24-3.044.06-.94-.171-1.815-.514-2.685-.875l-.111-.046-.223-.092-.11-.047a26 26 0 0 0-1.348-.527c-.886-.311-1.836-.502-2.775-.502m1.85-16.291c-1.265.28-2.399.828-3.491 1.517-.635.4-1.241.81-1.791 1.325-.817.766-1.442 1.697-1.987 2.67-.561 1.002-.921 2.17-1.095 3.302-.17 1.112-.199 2.28-.003 3.393.244 1.391.71 2.696 1.444 3.903.246-.115.422-.38.626-.557.414-.36.847-.692 1.313-.98.173-.106.35-.188.538-.264.07-.029.186-.055.22-.133.052-.124-.046-.34-.063-.468a7 7 0 0 1-.067-1.11 9.7 9.7 0 0 1 .609-3.183c.288-.761.728-1.452 1.249-2.072a9 9 0 0 1 .558-.6c.115-.115.257-.213.329-.36-.374 0-.749.108-1.104.218-.767.237-1.514.589-2.15 1.085-.29.227-.501.523-.776.762-.084.073-.234.17-.35.116-.176-.084-.149-.43-.17-.59-.076-.614.155-1.39.449-1.922.472-.854 1.345-1.583 2.37-1.557.443.01.83.165 1.253.266-.107-.153-.25-.265-.388-.39a5.3 5.3 0 0 0-1.104-.801c-.162-.086-.336-.138-.507-.2-.086-.032-.194-.076-.227-.171-.06-.178.259-.343.376-.418.452-.29 1.007-.528 1.552-.542.85-.02 1.682.454 2.033 1.261.123.284.16.584.184.887l.004.057.006.085.003.028.004.057.004.057c.267-.219.455-.541.716-.775.61-.549 1.446-.792 2.239-.545.716.223 1.338.72 1.705 1.38.096.173.363.595.17.768-.151.134-.343.03-.503-.026a3 3 0 0 0-.37-.095l-.069-.013-.068-.013a3.9 3.9 0 0 0-1.373-.002c-.28.05-.555.15-.835.192v.06a2.23 2.23 0 0 1 1.884 1.11c.156.277.234.592.294.901.074.383.022.799-.082 1.171-.035.125-.098.337-.246.366-.106.02-.195-.085-.255-.156a4.6 4.6 0 0 0-.491-.523 20 20 0 0 0-1.463-1.14c-.266-.192-.558-.441-.865-.558.086.209.171.403.2.63.087.67-.192 1.299-.61 1.802a2.6 2.6 0 0 1-.426.427c-.066.05-.15.114-.238.1-.277-.044-.31-.463-.352-.677-.144-.728-.086-1.45.113-2.162-.177.09-.306.288-.417.45a5.3 5.3 0 0 0-.61 1.141c-.608 1.619-.602 3.515.185 5.074.088.174.221.15.394.15h.157a3 3 0 0 1 .47.018c.08.01.193 0 .256.06.077.072.036.195.019.283a3.5 3.5 0 0 0-.066.72c.327-.05.417-.577.533-.84.131-.3.265-.598.386-.901.06-.149.14-.316.119-.48-.024-.186-.157-.383-.25-.541-.176-.3-.376-.607-.506-.93-.104-.26-.007-.582.285-.674.161-.051.333.049.438.166.22.245.361.61.521.898l1.245 2.251q.159.287.32.57c.042.075.085.189.172.22.077.028.182-.011.258-.027.2-.04.398-.083.597-.12.24-.043.604-.035.776-.222-.252-.08-.543-.076-.806-.058-.157.011-.332.068-.477-.025-.215-.137-.358-.455-.49-.668-.325-.525-.632-1.058-.943-1.591l-.05-.085-.1-.17q-.076-.127-.148-.256c-.037-.066-.092-.153-.039-.227.056-.077.178-.081.289-.081h.021a1 1 0 0 0 .117-.005 10 10 0 0 1 1.343-.107c-.035-.122-.135-.26-.103-.39.072-.292.49-.383.684-.174.13.14.207.334.292.504.112.224.24.44.36.66.21.386.44.76.656 1.142l.054.094.028.046c.093.157.187.315.237.49-.75-.034-1.314-.91-1.641-1.501-.026.095.016.179.05.27q.104.284.261.54c.152.245.325.497.554.675.407.316.944.317 1.433.284.314-.022.706-.166 1.015-.068.308.097.432.438.249.7-.137.197-.32.271-.548.301.161.347.372.669.525 1.02.063.148.13.372.282.45.102.052.247.003.357.001-.11-.293-.317-.541-.418-.84.31.014.608.176.895.279a48 48 0 0 1 1.683.65l.257.103c.23.093.46.184.687.285.082.036.197.122.288.07.075-.044.123-.147.17-.216.128-.196.245-.398.36-.601.462-.813.802-1.704 1.028-2.612.748-2.994.106-6.297-1.69-8.797a11 11 0 0 0-2.514-2.48c-2.394-1.72-5.535-2.41-8.416-1.771m4.895 14.928c-.635.166-1.29.317-1.94.402.085.293.295.577.448.84.059.102.122.238.24.282.131.05.291-.03.416-.071-.058-.16-.155-.302-.234-.45-.033-.062-.084-.135-.057-.208.051-.137.263-.13.38-.153.31-.063.616-.142.926-.204.114-.023.273-.085.387-.047.086.029.138.1.187.174l.022.033a.6.6 0 0 0 .096.122c.126.114.313.131.472.162-.097-.22-.259-.41-.362-.63-.06-.128-.11-.316-.24-.39-.182-.101-.556.09-.741.138m-4-1.46c-.03.38-.146.69-.328 1.021.21.027.422.036.627.087.154.038.295.111.448.153-.082-.224-.233-.424-.35-.63-.118-.209-.224-.463-.396-.63"/></svg>
